files/2/256x256/places/user-desktop.svg

<?xml version="1.0" encoding="UTF-8" standalone="no"?>
<svg
   xmlns:dc="http://purl.org/dc/elements/1.1/"
   xmlns:cc="http://creativecommons.org/ns#"
   xmlns:rdf="http://www.w3.org/1999/02/22-rdf-syntax-ns#"
   xmlns:svg="http://www.w3.org/2000/svg"
   xmlns="http://www.w3.org/2000/svg"
   xmlns:sodipodi="http://sodipodi.sourceforge.net/DTD/sodipodi-0.dtd"
   xmlns:inkscape="http://www.inkscape.org/namespaces/inkscape"
   width="256"
   height="256"
   viewBox="0 0 256 256"
   id="svg3383"
   version="1.1"
   inkscape:version="0.48.4 r9939"
   sodipodi:docname="user-desktop.svg">
  <metadata
     id="metadata3401">
    <rdf:RDF>
      <cc:Work
         rdf:about="">
        <dc:format>image/svg+xml</dc:format>
        <dc:type
           rdf:resource="http://purl.org/dc/dcmitype/StillImage" />
      </cc:Work>
    </rdf:RDF>
  </metadata>
  <defs
     id="defs3399" />
  <sodipodi:namedview
     pagecolor="#ffffff"
     bordercolor="#666666"
     borderopacity="1"
     objecttolerance="10"
     gridtolerance="10"
     guidetolerance="10"
     inkscape:pageopacity="0"
     inkscape:pageshadow="2"
     inkscape:window-width="678"
     inkscape:window-height="480"
     id="namedview3397"
     showgrid="false"
     inkscape:zoom="0.921875"
     inkscape:cx="184.40678"
     inkscape:cy="124.74576"
     inkscape:window-x="0"
     inkscape:window-y="0"
     inkscape:window-maximized="0"
     inkscape:current-layer="svg3383" />
  <path
     inkscape:connector-curvature="0"
     id="path3009"
     d="M 34.77344,204 C 31.097656,203.625 28,199.93359 28,195.98438 L 28,44.054689 c 0,-4.214848 3.566408,-8.054688 7.5,-8.054688 l 185,0 c 3.93359,0 7.5,3.83984 7.5,8.054688 l 0,129.878901 c 0,4.21485 -5.7461,10.26954 -9.67578,10.26954 l -67.72266,-0.12112 0,10.59375 c 0,4.17969 -3.28906,9.32422 -7.19922,9.32422 L 35.5,204 c -0.234376,0 -0.468752,0 -0.72656,0 z"
     style="fill:#e9a439;fill-opacity:1;stroke:#e9a439;stroke-width:8;stroke-opacity:1" />
  <path
     inkscape:connector-curvature="0"
     id="path3011"
     d="M 12.39844,52.000001 C 7.843752,52.375001 4,56.066409 4,60.015625 L 4,211.94531 C 4,216.16016 8.425784,220 13.300784,220 l 229.398436,0 c 4.875,0 9.30078,-3.83984 9.30078,-8.05469 l 0,-129.878901 c 0,-4.214848 -7.125,-10.269536 -12,-10.269536 l -83.97266,0.121096 0,-10.593752 c 0,-4.179688 -4.08203,-9.324216 -8.92578,-9.324216 l -133.800776,0 c -0.289064,0 -0.582032,0 -0.902344,0 z"
     style="fill:#f5c14e;fill-opacity:1;stroke:#e9a439;stroke-width:8;stroke-opacity:1" />
  <path
     inkscape:connector-curvature="0"
     id="path3393"
     d="m 85.34375,112 0,10.65625 5.3125,0 0,-8 c 0,-2.6875 2.6875,-2.6875 2.6875,-2.6875 l 8,0.0312 0,-5.34375 -10.6875,0 c 0,0 -5.3125,0 -5.3125,5.34375 z m 69.3125,-5.34375 0,5.34375 8,0 c 0,0 2.6875,-0.0312 2.6875,2.65625 l 0,8 5.3125,0 0,-10.65625 c 0,-5.34375 -5.3125,-5.34375 -5.3125,-5.34375 z m -69.3125,58.6875 0,10.65625 c 0,5.34375 5.3125,5.34375 5.3125,5.34375 l 10.6875,0 0,-5.34375 -8,0.0312 C 90.65625,176 90.65625,173.375 90.65625,173.375 l 0,-8.03125 z m 80,0 0,8 c 0,2.625 -2.6875,2.65625 -2.6875,2.65625 l -8,0 0,5.34375 10.6875,0 c 0,0 5.3125,0 5.3125,-5.34375 l 0,-10.65625 z"
     style="fill:#d0a444;fill-rule:evenodd;fill-opacity:1" />
  <path
     style="fill:#d0a444;fill-opacity:1"
     inkscape:connector-curvature="0"
     id="path3395"
     d="m 101.34375,127.96875 0,21.34375 c 0,5.3125 5.3125,5.3125 5.3125,5.3125 l 16,0 C 128,154.625 128,149.3125 128,149.3125 l 0,-16 -10.65625,-10.6875 -10.6875,0 c 0,0 -5.3125,0 -5.3125,5.34375 z m 5.3125,0 10.6875,0 0,5.34375 5.3125,0 0,16 -16,0 z" />
</svg>

<svg width="256" xmlns="http://www.w3.org/2000/svg" height="256" viewBox="0 0 256 256" xmlns:xlink="http://www.w3.org/1999/xlink">
<g style="stroke:#e9a439">
<path style="fill:#e9a439" d="M 4.34668 24.5 C 3.887207 24.453125 3.5 23.991699 3.5 23.498047 L 3.5 4.506836 C 3.5 3.97998 3.945801 3.5 4.4375 3.5 L 27.5625 3.5 C 28.054199 3.5 28.5 3.97998 28.5 4.506836 L 28.5 20.741699 C 28.5 21.268555 27.781738 22.025391 27.290527 22.025391 L 18.825195 22.010254 L 18.825195 23.334473 C 18.825195 23.856934 18.414062 24.5 17.925293 24.5 L 4.4375 24.5 C 4.408203 24.5 4.378906 24.5 4.34668 24.5 Z " transform="matrix(8 0 0 8 0 8)"/>
<path style="fill:#f5c14e" d="M 1.549805 5.5 C 0.980469 5.546875 0.5 6.008301 0.5 6.501953 L 0.5 25.493164 C 0.5 26.02002 1.053223 26.5 1.662598 26.5 L 30.337402 26.5 C 30.946777 26.5 31.5 26.02002 31.5 25.493164 L 31.5 9.258301 C 31.5 8.731445 30.609375 7.974609 30 7.974609 L 19.503418 7.989746 L 19.503418 6.665527 C 19.503418 6.143066 18.993164 5.5 18.387695 5.5 L 1.662598 5.5 C 1.626465 5.5 1.589844 5.5 1.549805 5.5 Z " transform="matrix(8 0 0 8 0 8)"/>
</g>
<g style="fill:#e9a439">
<path style="fill-rule:evenodd" d="M 85.34375 112 L 85.34375 122.65625 L 90.65625 122.65625 L 90.65625 114.65625 C 90.65625 111.96875 93.34375 111.96875 93.34375 111.96875 L 101.34375 112 L 101.34375 106.65625 L 90.65625 106.65625 C 90.65625 106.65625 85.34375 106.65625 85.34375 112 Z M 154.65625 106.65625 L 154.65625 112 L 162.65625 112 C 162.65625 112 165.34375 111.96875 165.34375 114.65625 L 165.34375 122.65625 L 170.65625 122.65625 L 170.65625 112 C 170.65625 106.65625 165.34375 106.65625 165.34375 106.65625 Z M 85.34375 165.34375 L 85.34375 176 C 85.34375 181.34375 90.65625 181.34375 90.65625 181.34375 L 101.34375 181.34375 L 101.34375 176 L 93.34375 176.03125 C 90.65625 176 90.65625 173.375 90.65625 173.375 L 90.65625 165.34375 Z M 165.34375 165.34375 L 165.34375 173.34375 C 165.34375 175.96875 162.65625 176 162.65625 176 L 154.65625 176 L 154.65625 181.34375 L 165.34375 181.34375 C 165.34375 181.34375 170.65625 181.34375 170.65625 176 L 170.65625 165.34375 Z "/>
<path d="M 101.34375 127.96875 L 101.34375 149.3125 C 101.34375 154.625 106.65625 154.625 106.65625 154.625 L 122.65625 154.625 C 128 154.625 128 149.3125 128 149.3125 L 128 133.3125 L 117.34375 122.625 L 106.65625 122.625 C 106.65625 122.625 101.34375 122.625 101.34375 127.96875 Z M 106.65625 127.96875 L 117.34375 127.96875 L 117.34375 133.3125 L 122.65625 133.3125 L 122.65625 149.3125 L 106.65625 149.3125 Z "/>
</g>
</svg>
